X:3226
T:Klockarpolskan efter Elsa Siljebo
R:Polska
Z:Anton Teljebäck 
O:Fredrika, Lappland
S:efter Elsa Siljebo
%%MIDI ratio 24 16
M:3/4
L:1/8
K:Dm
|: "Dm"(3f(gf) "C"(3e(fe) "Bb"(3d(ed) | "A"^c>e A2 c>(e | "Bb"d)>(a g)>(e f)>d | "A"(3e(fe) (3d(ed) ^c>A |
"Dm"(3f(gf) "C"(3e(fe) "Bb"(3d(ed) | "A"^c>e A2 c>(e | "Dm"d)>(a g)>(e f)>d | "A"(e<^c) "Dm"d4 :|
|:"Dm"d>(f a)>(f a)>(f | "C" e)>(f g)>(e g)>(e | "Bb" d)>(e (3fgf) ed | "A"d(^c/d/ e<c) (A2 | 
"F" d)(>f a)>(f a)>(f | "C" e)>(f g)>(e g)>(e | "Dm"d)>(e (3fgf) e>d | "A"^c=B/c/  "Dm"d4 :|
(:musicend:)
(:music:)
